assets/icons/24px/outline/graph-line-down-24px.svg

<svg width="24" height="24" viewBox="0 0 24 24" fill="none" xmlns="http://www.w3.org/2000/svg">
<path d="M3 3V17C3 18.8856 3 19.8284 3.58579 20.4142C4.17157 21 5.11438 21 7 21H21M20 17L19.5017 15.6711C19.2129 14.9009 19.0685 14.5159 18.8485 14.3429C18.5582 14.1146 18.1657 14.0649 17.8277 14.2136C17.5716 14.3263 17.3358 14.6632 16.8641 15.337V15.337C16.3362 16.0912 16.0722 16.4683 15.8002 16.5796C15.4412 16.7265 15.0297 16.6525 14.7443 16.3899C14.5281 16.1909 14.4119 15.7455 14.1795 14.8547L12.8943 9.92834C12.6655 9.05106 12.5511 8.61242 12.3613 8.42117C12.041 8.09841 11.5433 8.03233 11.15 8.26036C10.9169 8.39547 10.692 8.78906 10.2421 9.57625V9.57625C9.68679 10.5481 9.40911 11.0341 9.15506 11.1698C8.72547 11.3994 8.19298 11.286 7.89413 10.9014C7.7174 10.674 7.6617 10.117 7.55032 9.00324L7 3.5" stroke="white" stroke-width="2" stroke-linecap="round" stroke-linejoin="round"/>
</svg>

<svg width="24" height="24" fill="none" xmlns="http://www.w3.org/2000/svg"><path d="M3 3v14c0 1.886 0 2.828.586 3.414C4.172 21 5.114 21 7 21h14m-1-4l-.498-1.329c-.29-.77-.433-1.155-.653-1.328a1 1 0 0 0-1.021-.13c-.256.113-.492.45-.964 1.124-.528.754-.792 1.131-1.064 1.243a1 1 0 0 1-1.056-.19c-.216-.2-.332-.645-.564-1.535l-1.286-4.927c-.229-.877-.343-1.316-.533-1.507a1 1 0 0 0-1.211-.16c-.233.134-.458.528-.908 1.315-.555.972-.833 1.458-1.087 1.594a1 1 0 0 1-1.26-.269c-.178-.227-.233-.784-.345-1.898L7 3.5" stroke="#fff" stroke-width="2" stroke-linecap="round" stroke-linejoin="round"/></svg>
